X:1
T:Up then, Melpomene - Kirbye
T:#
%%score { 1 | 2 } 3 { 4 | 5 } 6
L:1/8
Q:1/4=100
M:4/4
K:F
V:1 treble nm="Soprano I" snm="S"
V:2 treble 
V:3 treble nm="Alto" snm="A"
V:4 treble-8 nm="Tenor I" snm="T"
V:5 treble-8 
V:6 bass nm="Bass" snm="B"
V:1
 z8 | d8 |"^Up then, Melpomene" d4 z2 !courtesy!=f2 | e3 e e4 | %4
w: |Up,|then, Mel-|po- me- ne,|
 z2 d2"^George Kirbye\n(1570 - 1634)" f4- | f2 e2 e2 d2 | e8 |[M:4/4] z4 z2 e2 | f2 d2 ^c4 | %9
w: the mourn\-|* ful'st muse of|nine,|such|cause of mourn-|
 d4 z2 A2- | A2 G2 A4 | z2 e2 f2 d2 | ^c4 d4 | z2 e4 d2 | (^c2 d4) c2 | d8 | z4 d4 | d3 d _e4- | %18
w: ing, of|* mourn- ing,|such cause of|mourn- ing|nev- er|had'st * a-|fore.|Up,|gris- ly ghosts,|
 e4 _e2 g2- | g2 g2 (f4- | f2 _e2) d4 | =e8 | c2 AB c2 d2 | B6 _e2 | d6 d2 | d8 | z8 | %27
w: * and up|* my rue\-|* * ful|rime,|mat- ter of mirth now|shalt thou|have no|more,||
 A2 FG A2 B2 | G2 G2 c4- | c4 B4 | A4 z2 d2 | B8 | c8 | F4 z2 f2 | f3 f f2 d2 | d8 | z4 z2 d2- | %37
w: mat- ter of mirth now|shalt thou have|* no|more, for|dead|she|is, that|mirth thee made of|yore:|Di\-|
 dc B2 A2 G2 | ^F2 G2 D4 | z4 z2 d2- | dc B2 A2 G2 | ^F2 G2 D2 d2- | dc B2 A2 A2 | B3 G B2 c2 | %44
w: * do, my dear, a-|las, is dead,|Di-|* do, my dear, a-|las is dead, Di\-|* do, my dear, a-|las, a- las, is|
 d2 z2 z4 | z2 g3 f _e2 | d6 G2 | A6 D2 | D8 | z4 z2 d2- | d2 ^c2 d2 f2 | e3 e d4 | z4 z2 a2- | %53
w: dead,|Di- do, my|dear, a-|las is|dead.|Dead|* and li- eth|wrapt in lead,|dead|
 a2 e2 f2 e2- | e2 d4 ^c2 | d8- | d8 | z8 | z8 | z4 g4 | _e6 e2 | d8 | z4 z2 d2 | =f3 f e2 e2 | %64
w: * and li- eth|* wrapt in|lead.||||O,|hea- vy|hearse,|let|stream- ing tears be|
 (dcB)A G2 F2 | E4 z4 | z8 | z8 | z4 z2 A2 | B3 B A4 | z2 c2 (BAG)F | E2 A2 A4- | A8 | z8 | z8 | %75
w: pour\- * * ed out in|store,|||let|stream- ing tears|be pour\- * * ed|out in store.||||
 z4 A4 | B6 B2 | A8 | z4 G4- | G4 c4- |[Q:1/4=84] c4 (=B2 A2) | !fermata!=B8 |] %82
w: O,|care- ful|verse,|O,|* care\-|* ful *|verse.|
V:2
 z8 | B8 | A4 z2 d2 | ^c3 c c4 | z2 B2 c4- | c2 c2 c2 A2 | A4 z2 e2 |[M:4/4] f2 d2 ^c4 | %8
w: |Up,|then, Mel-|po- me- ne,|the mourn\-|* ful'st muse of|nine, such|cause of mourn-|
 d4 z2 A2- | A2 G2 A2 e2 | f2 d2 ^c4 | d4 z2 A2- | A2 A2 F4 | B8 | A8- | A8 | z4 B4 | B3 B B4- | %18
w: ing, of|* mourn- ing, such|cause of mourn-|ing nev\-|* er had'st|a-|fore.||Up,|gris- ly ghosts,|
 B4 z4 | _e2 e4 d2- | d2 c4 =B2 | c8 | A2 FG A2 B2 | G3 A B2 (c2- | c2 B2 A4) | =B4 z4 | z8 | %27
w: |and up my|* rue- ful|rime,|mat- ter of mirth now|shalt thou have no||more,||
 c2 AB c2 d2 | B4 _e4 | d6 d2 | d8 | z4 g4 | _e6 e2 | d4 z2 d2 | c3 c c2 B2 | A4 z4 | z8 | %37
w: mat- ter of mirth now|shalt thou|have no|more,|for|dead she|is, that|mirth thee made of|yore:||
 z2 d3 c B2 | A2 G2 ^F2 G2 | D4 z4 | z2 d3 c B2 | A2 G2 ^F2 G2 | D8- | D4 z4 | z2 g3 f _e2 | %45
w: Di- do, my|dear, a- las, is|dead,|Di- do, my|dear, a- las, is|dead,||Di- do, my|
 d4 c4 | A4 d4 | d8 | z4 z2 d2- | d2 A2 B2 G2 | (A3 G F2) D2 | A4 z2 d2- | d2 ^c2 d2 f2 | %53
w: dear, a-|las, is|dead.|Dead|* and li- eth|wrapt * * in|lead, dead|* and li- eth|
 e3 e d2 c2 | c2 A2 A3 A | A8 | z4 g4 | _e6 e2 | d8 | z8 | z4 A4 | ^F4 G4 | A4 z2 A2 | d3 d c2 c2 | %64
w: wrapt in lead, and|li- eth wrapt in|lead.|O,|hea- vy|hearse,||O,|hea- vy|hearse, let|stream- ing tears be|
 (BAG)F E2 A2 | A8- | A4 z4 | z8 | z8 | z2 d2 f3 f | e2 e2 (dcB)A | G2 F2 (E4 | ^F4) z4 | z8 | z8 | %75
w: pour\- * * ed out in|store,||||let stream- ing|tears be pour\- * * ed|out in store.||||
 z4 d4 | d6 d2 | d8 | z4 d4 | _e8- | e4 d4 | !fermata!d8 |] %82
w: O,|care- ful|verse,|O,|care\-|* ful|verse.|
V:3
 z8 | G8 | ^F4 z2 A2 | A3 A A4 | z2 F2 A4- | A2 G2 A2 F2 | E4 z2 E2 |[M:4/4] A2 F2 E4 | D4 z2 E2 | %9
w: |Up,|then, Mel-|po- me- ne,|the mourn\-|* ful'st muse of|nine, such|cause of mourn-|ing, such|
 F2 D2 (^C4 | D4) E4 | z2 G2 A2 F2 | E4 D4 | G6 F2 | (E2 D2) E4 | ^F8 | z4 D4 | D3 D G4- | %18
w: cause of mourn\-|* ing,|such cause of|mourn- ing|nev- er|had'st * a-|fore.|Up,|gris- ly ghosts,|
 G4 G2 G2- | G2 c2 A4 | G8 | G8 | z8 | G2 _EF G2 A2 | ^F2 G2 G2 F2 | G8 | D2 B,C D2 _E2 | C6 F2 | %28
w: * and up|* my rue-|ful|rime,||mat- ter of mirth now|shalt thou have no|more,|mat- ter of mirth now|shalt thou|
 _E2 G2 G4 | z2 A2 A2 G2 | (^F2 G4) F2 | G4 G4 | G4 C4 | D4 z2 B2 | A3 A A2 G2 | ^F4 z2 =F2 | %36
w: have no more,|now shalt thou|have * no|more, for|dead she|is, that|mirth thee made of|yore, that|
 F3 F F2 D2 | D8 | z2 d3 c B2 | A2 G2 ^F2 G2 | D8 | z2 d3 c B2 | A2 G2 G2 ^F2 | G8 | z8 | %45
w: mirth thee made of|yore:|Di- do, my|dear, a- las, is|dead,|Di- do, my|dear, a- las, is|dead,||
 z2 B3 A G2 | ^F4 z2 G2 | G4 ^F4 | G8 | z8 | z4 z2 A2- | A2 E2 F2 D2 | E3 E D4 | z2 A4 G2 | %54
w: Di- do, my|dear, a-|las, is|dead.||Dead|* and li- eth|wrapt in lead,|dead and|
 A2 F2 E3 E | D8 | z8 | z4 c4 | A6 A2 | G8 | z4 A4- | A4 G4- | G2 G2 ^F4 | z2 D2 A3 A | %64
w: li- eth wrapt in|lead.||O,|hea- vy|hearse,|O,|* hea\-|* vy hearse,|let stream- ing|
 F2 D2 E2 D2 | D2 ^C2 D2 A2 | c3 c B2 B2 | (AGF)E D2 (G2- | ^F2 G4 F2) | G4 z2 D2 | A3 A F2 D2 | %71
w: tears be pour- ed|out in store, let|stream- ing tears be|pour\- * * ed out in||store, let|stream- ing tears be|
 E2 D2 D2 ^C2 | D8 | z2 A2 F2 D2 | E2 D2 ^C4- | C4 A4 | G6 G2 | ^F4 D4 | G8- | G4 G4 | G8- | %81
w: pour- ed out in|store,|be pour- ed|out in store,|* O,|care- ful|verse, O,|care\-|* ful|verse.|
 !fermata!G8 |] %82
w: |
V:4
 z8 | G8 | d4 z2 d2 | e3 e e4 | z2 d2 A4- | A2 e2 c2 d2 | ^c8 |[M:4/4][K:treble-8] z4 z2 A2 | %8
w: |Up,|then, Mel-|po- me ne,|the mourn\-|* ful'st muse of|nine,|such|
 d2 B2 A4 | D4 z2 A2 | d2 B2 A2 A2 | z2 B2 c2 A2 | e2 ^c2 z2 (d2- | d2 ef g4- | g2) f2 e2 e2 | %15
w: cause of mourn-|ing, such|cause of mourn- ing,|such cause of|mourn- ing nev\-||* er had'st a-|
 d4 z2 d2 | d3 d f4- | f4 z2 B2 | B3 B _e4 | z2 _e2 c2 d2 | (=B2 c2 d2) d2 | c8 | f2 ag f2 B2 | %23
w: fore. Up,|gris- ly ghosts,|* up|gris- ly ghosts,|and up my|rue\- * * ful|rime,|mat- ter of mirth now|
 _e6 c2 | d4 d4 | G8 | B2 GA B2 c2 | A6 d2 | G4 G4 | d8 | z8 | G4 B4- | B4 A4 | B4 z2 B2 | %34
w: shalt thou|have no|more,|mat- ter of mirth now|shalt thou|have no|more,||for dead|* she|is, that|
 f3 f f2 g2 | d4 z2 d2 | c3 c c2 B2 | A4 z2 d2- | dc B2 A2 G2 | ^F2 G2 D4 | z4 z2 d2- | %41
w: mirth thee made of|yore, that|mirth thee made of|yore: Di\-|* do, my dear, a-|las, is dead,|Di\-|
 dc B2 A2 G2 | ^F2 G2 (A4 | G2) B3 A G2 | d2 c2 d2 G2 | G4 z2 G2 | d6 d2 | d8 | z2 d4 B2 | %49
w: * do, my dear, a-|las, is dead,|* Di- do, my|dear, a- las, is|dead, a-|las, ls|dead.|Dead and|
 d2 f2 (e2 d2) | e4 d4 | z2 a4 g2 | a2 e2 f2 d2 | A4 z4 | z4 a4 | ^f6 f2 | g8- | g4 a4 | ^f6 f2 | %59
w: li- eth wrapt *|in lead,|dead and|li- eth wrapt in|lead.|O,|hea- vy|hearse,|* O,|hea- vy|
 d8 | z4 c4 | A4 d4 | d8 | z8 | z8 | z2 e2 f3 f | e2 c2 d2 e2 | f6 _e2 | d8 | z2 G2 d3 d | %70
w: hearse,|O,|hea- vy|hearse,|||let stream- ing|tears be pour- ed|out in|store,|let stream- ing|
 A2 A2 B3 B | c2 d2 A4 | z2 d2 =f3 f | e2 e2 (dcB)A | G2 F2 E4- | E4 d4 | d6 d2 | d8 | z4 d4 | %79
w: tears be pour- ed|out in store,|let stream- ing|tears be pour\- * * ed|out in store,|* O,|care- ful|verse,|O,|
 c8- | c4 d4 | !fermata!d8 |] %82
w: care\-|* ful|verse.|
V:5
 G8 | d8 | z4 d4 |"^po-" A3 A A4 | z2 B2 F4- | F2 c2 A2 d2 | A8- |[M:4/4][K:treble-8] A8 | %8
w: Up,|then,|Mel-|* me- ne,|the mourn\-|* ful'st muse of|nine,||
 z4 z2 A2 | d2 B2 A4 | D4 z2 A2 | d2 B2 A2 A2 | z4 d4- | d2 c2 B4 | (^c2 A2) A4- | A8 | z8 | %17
w: such|cause of mourn-|ing, such|cause of mourn- ing|nev\-|* er had'st|a\- * fore.|||
 z2 B2 B3 B | _e8 | B2 c4 A2 | d2 G2 G4- | G8 | z8 | z8 | z8 | z4 d2 _Bc | d3 c B2 G2 | A3 G F4 | %28
w: Up, gris- ly|ghosts,|and up my|rue- ful rime,|||||mat- ter of|mirth now shalt thou|have no more,|
 G2 _EF G2 A2 | ^F6 G2 | D4 A4 | G4 z2 _E2 | _E6 C2 | F8 | z8 | z4 B4 | A3 A A2 G2 | ^F6 G2 | D8 | %39
w: mat- ter of mirth now|shalt thou|have no|more, for|dead she|is||that|mirth thee made of|yore, of|yore:|
 z2 d3 c B2 | A2 G2 ^F2 G2 | D8- | D8 | z2 G3 F _E2 | D2 (G2 AB) c2 | d2 G2 c4- | c4 B4 | A8 | G8 | %49
w: Di- do, my|dear, a- las, is|dead,||Di- do, my|dear, a\- * * las,|is dead, a\-|* las|is|dead.|
 z8 | z4 z2 d2- | d2 ^c2 d2 B2 | A3 A D4 | z2 A2 F2 c2 | A6 A2 | A4 d4 | =B8 | c8 | d8 | z4 d4- | %60
w: |Dead|* and li- eth|wrapt in lead,|and li- eth|wrap'd in|lead. O,|hea-|vy|hearse,|O,|
 d4 c4- | c4 B4 | A4 z2 d2 | d3 d A2 A2 | B3 B c2 d2 | A4 z4 | z2 A2 B3 B | c2 c2 (d2 cB | %68
w: * hea\-|* vy|hearse, let|stream- ing tears be|pour- ed out in|store,|let stream- ing|tears be pour\- * *|
 A2) G2 A2 A2 | G4 z4 | z8 | z8 | z2 A2 d3 d | c2 c2 (BAG)F | E2 A2 A4- | A4 ^F4 | B6 G2 | A4 A4 | %78
w: * ed out in|store,|||let stream- ing|tears be pour\- * * ed|out in store,|* O,|care- ful|verse, O,|
 G8- | G4 G4 | G8- | !fermata!G8 |] %82
w: care\-|* ful|verse.||
V:6
 z8 | z8 | z8 | z8 | z8 | z8 | z8 |[M:4/4] z8 | z8 | z8 | z4 z2 A,2 | B,2 G,2 F,3 G, | A,4 B,4 | %13
w: ||||||||||Such|cause of mourn- ing|nev- er|
 G,8 | A,8 | D,8 | z4 B,,4 | B,,3 B,, _E,4- | E,4 _E,2 E,2- | E,2 C,2 F,4 | G,8 | C,8 | z8 | z8 | %24
w: had'st|a-|fore.|Up|gris- ly ghosts,|* and up|* my rue-|ful|rime,|||
 z8 | z8 | G,2 B,A, G,2 C,2 | F,6 B,,2 | _E,4 C,4 | D,8 | z4 D,4 | _E,8 | C,8 | B,,8 | z8 | %35
w: ||mat- ter of mirth now|shalt thou|have no|more,|for|dead|she|is,||
 z4 B,,4 | F,3 F, F,2 G,2 | D,8 | z4 z2 D2- | DC B,2 A,2 G,2 | ^F,2 G,2 D,4 | z8 | z8 | %43
w: that|mirth thee made of|yore:|Di\-|* do, my dear, a-|las, is dead,|||
 z4 z2 G,2- | G,F, _E,2 D,2 C,2 | B,,4 C,4 | D,8- | D,8 | z4 G,4- | G,2 F,2 G,2 B,2 | A,3 A, D,4 | %51
w: Di\-|* do, my dear, a-|las, is|dead.||Dead|* and li- eth|wrapt in lead,|
 z8 | z4 z2 D,2- | D,2 ^C,2 D,2 E,2 | F,3 G, A,4 | D,8 | z8 | z8 | z4 D,4 | =B,,8 | C,8 | D,8- | %62
w: |dead|* and li- eth|wrap- ped in|lead.|||O,|hea-|vy|hearse,|
 D,8 | z8 | z8 | z4 z2 D,2 | A,3 A, G,2 G,2 | (F,E,D,)C, B,,2 C,2 | D,8 | z8 | z8 | z4 z2 A,,2 | %72
w: |||let|stream- ing tears be|pour\- * * ed out in|store,|||let|
 D,6 D,2 | A,,2 A,,2 B,,3 B,, | C,2 D,2 A,,4- | A,,4 D,4 | G,6 G,2 | D,4 D,4 | =B,,8 | C,8 | %80
w: stream- ing|tears be pour- ed|out in store,|* O,|care- ful|verse, O,|care-|ful|
 G,,8- | !fermata!G,,8 |] %82
w: verse.||

